svgs/xbox.svg

<svg width="192" height="192" viewBox="0 0 192 192" fill="none" xmlns="http://www.w3.org/2000/svg"><path d="M33.698 134.071c-6.536-10.034-9.839-19.911-11.431-34.196-.528-4.717-.342-7.414 1.193-17.098 1.91-12.057 8.777-26.02 17.033-34.607 3.515-3.65 3.827-3.747 8.113-2.297 5.195 1.76 10.748 5.598 19.362 13.393L73 63.818l-2.752 3.373c-12.747 15.657-26.201 37.865-31.266 51.6l-5.292 15.285.008-.005Zm124.604 0c6.536-10.034 9.839-19.911 11.431-34.196.528-4.717.342-7.414-1.193-17.098-1.91-12.057-8.777-26.02-17.033-34.607-3.515-3.65-3.827-3.747-8.113-2.297-5.195 1.76-10.748 5.598-19.362 13.393L119 63.818l2.752 3.373c12.747 15.657 26.201 37.865 31.266 51.6l5.292 15.285-.008-.005ZM57.64 158.74c9.385 6.091 20.31 9.945 31.103 10.974 9.035.86 20.005-.251 28.358-2.875 10.133-3.182 23.928-11.468 26.151-15.706 2.924-5.576-2.83-18.085-15.352-33.357-7.92-9.662-29.071-30.182-31.719-30.77-1.36-.301-13.943 10.873-22.975 20.412C57.297 124.209 48 138.942 48 147.352c0 4.186 1.775 6.287 9.64 11.388ZM127 30.5c-11-11-51-11-62 0 25 4.5 31 9 31 9s6-4.5 31-9Z" stroke="#000" stroke-width="12" stroke-linejoin="round"/></svg>

<?xml version="1.0" encoding="UTF-8" standalone="no"?><svg xmlns:android="http://schemas.android.com/apk/res/android" height="192" width="192" xmlns="http://www.w3.org/2000/svg">
  <path d="M33.698,134.071C27.162,124.037 23.859,114.16 22.267,99.875C21.739,95.158 21.925,92.461 23.46,82.777C25.37,70.72 32.237,56.757 40.493,48.17C44.008,44.52 44.32,44.423 48.606,45.873C53.801,47.632 59.354,51.471 67.968,59.266L73,63.818L70.248,67.191C57.501,82.848 44.047,105.056 38.982,118.791L33.69,134.076L33.698,134.071Z" fill="#000000" fill-opacity="0.0" stroke="#000000" stroke-linejoin="round" stroke-width="12"/>
  <path d="M158.302,134.071C164.838,124.037 168.141,114.16 169.733,99.875C170.261,95.158 170.075,92.461 168.54,82.777C166.63,70.72 159.763,56.757 151.507,48.17C147.992,44.52 147.68,44.423 143.394,45.873C138.199,47.632 132.646,51.471 124.032,59.266L119,63.818L121.752,67.191C134.499,82.848 147.953,105.056 153.018,118.791L158.31,134.076L158.302,134.071Z" fill="#000000" fill-opacity="0.0" stroke="#000000" stroke-linejoin="round" stroke-width="12"/>
  <path d="M57.639,158.74C67.025,164.831 77.951,168.685 88.743,169.714C97.778,170.574 108.748,169.463 117.101,166.839C127.234,163.657 141.029,155.371 143.252,151.133C146.176,145.557 140.422,133.048 127.9,117.776C119.98,108.114 98.829,87.594 96.181,87.006C94.821,86.705 82.238,97.879 73.206,107.418C57.298,124.209 48,138.942 48,147.352C48,151.538 49.775,153.639 57.639,158.74Z" fill="#000000" fill-opacity="0.0" stroke="#000000" stroke-linejoin="round" stroke-width="12"/>
  <path d="M127,30.5C116,19.5 76,19.5 65,30.5C90,35 96,39.5 96,39.5C96,39.5 102,35 127,30.5Z" fill="#000000" fill-opacity="0.0" stroke="#000000" stroke-linejoin="round" stroke-width="12"/>
</svg>
